packages/core/src/svgs/btc.svg

<svg width="24" height="24" viewBox="0 0 24 24" fill="none" xmlns="http://www.w3.org/2000/svg">
<g clip-path="url(#clip0_31_7535)">
<path d="M0 0H24V24H0V0Z" fill="#F7931A"/>
<path d="M17.1155 10.5876C17.3362 9.09014 16.2026 8.29171 14.6413 7.74957L15.147 5.73185L13.914 5.425L13.422 7.393L12.438 7.15771L12.9369 5.17557L11.7035 4.86914L11.1973 6.89414L10.413 6.70857V6.70171L8.70905 6.27357L8.38076 7.59271C8.38076 7.59271 9.29362 7.807 9.27905 7.81386C9.77833 7.94243 9.86405 8.27028 9.84991 8.527L9.27905 10.837L9.40762 10.8799L9.27219 10.8511L8.46648 14.0813C8.40948 14.2313 8.25219 14.4593 7.90333 14.3663C7.91748 14.3877 7.01191 14.1524 7.01191 14.1524L6.39905 15.5573L8.00319 15.9563L8.88005 16.1847L8.36662 18.2311L9.60005 18.5376L10.0993 16.5126L11.0902 16.7693L10.5845 18.787L11.8175 19.0939L12.3236 17.0474C14.427 17.4464 16.0102 17.29 16.6736 15.3859C17.208 13.8533 16.6449 12.976 15.5396 12.3914C16.3453 12.2131 16.9513 11.6783 17.1082 10.5871H17.1155V10.5876ZM14.2989 14.5377C13.9209 16.0707 11.34 15.2363 10.506 15.0366L11.1832 12.3203C12.0172 12.5341 14.6983 12.9404 14.2989 14.5304V14.5377ZM14.6769 10.5661C14.3345 11.9564 12.1813 11.2506 11.4896 11.0796L12.1025 8.61957C12.8015 8.791 15.0403 9.11885 14.6769 10.5661Z" fill="white"/>
</g>
<defs>
<clipPath id="clip0_31_7535">
<rect width="24" height="24" fill="white"/>
</clipPath>
</defs>
</svg>

<svg xmlns="http://www.w3.org/2000/svg" width="24" height="24" fill="none" viewBox="0 0 24 24"><g clip-path="url(#a)"><path fill="#F7931A" d="M0 0h24v24H0z"/><path fill="#fff" d="M17.116 10.588c.22-1.498-.913-2.296-2.475-2.838l.506-2.018-1.233-.307-.492 1.968-.984-.235.499-1.982-1.233-.307-.507 2.025-.784-.185v-.007l-1.704-.428-.328 1.319s.913.214.898.22c.5.13.585.457.57.714l-.57 2.31.129.043-.136-.029-.806 3.23c-.057.15-.214.378-.563.285.014.022-.891-.214-.891-.214l-.613 1.405 1.604.4.877.228-.513 2.046 1.233.307.5-2.025.99.256-.505 2.018 1.233.307.506-2.047c2.103.4 3.686.243 4.35-1.661.534-1.533-.03-2.41-1.134-2.995.805-.178 1.411-.713 1.568-1.804zm-2.817 3.95c-.378 1.533-2.959.698-3.793.499l.677-2.717c.834.214 3.515.62 3.116 2.21zm.378-3.972c-.342 1.39-2.496.685-3.187.514l.612-2.46c.7.171 2.938.499 2.575 1.946"/></g><defs><clipPath id="a"><path fill="#fff" d="M0 0h24v24H0z"/></clipPath></defs></svg>
